src/assets/images/thumbnail_gallery_widget.svg

<svg height="100" viewBox="0 0 150 100" width="150" xmlns="http://www.w3.org/2000/svg"><g fill="none" fill-rule="evenodd"><g transform="translate(33 19)"><path d="m0 0h37v27h-37z" fill="#fff" fill-rule="evenodd"/><path d="m-1-1h39v29h-39z" stroke="#ff6b6b" stroke-width="2"/></g><g transform="translate(36.7 22.6)"><path d="m.18901978 0c-.10439274 0-.18901978.07386803-.18901978.16420864v20.07158266c0 .09069.08491211.1642087.18901978.1642087h29.22196052c.1043926 0 .1890197-.073868.1890197-.1642087v-20.07158266c0-.09068992-.0849122-.16420864-.1890197-.16420864z" fill="#fff"/><g fill="#ff6b6b"><path d="m10.9852306 4.87437139 4.3734331 7.20399071c.0538165.0886476.1700516.1118049.2563236.0539334l3.7099444-2.48864235c.1736512-.11648588.4048938-.07584849.520853.09727281l6.74251 7.50437324c.1140079.1702081.0315767.3081892-.1697248.3081892h-23.71168625c-.20829882 0-.29880076-.1441152-.20043881-.3250221l8.10753936-12.34950067c.0975995-.17950473.2657512-.17836762.3712464-.00459424z"/><path d="m24.1733333 6.16744186c1.0898419 0 1.9733334-.84961774 1.9733334-1.89767442s-.8834915-1.89767442-1.9733334-1.89767442c-1.0898418 0-1.9733333.84961774-1.9733333 1.89767442s.8834915 1.89767442 1.9733333 1.89767442z"/></g></g><g transform="translate(33 55)"><path d="m0 0h37v27h-37z" fill="#fff" fill-rule="evenodd"/><path d="m-1-1h39v29h-39z" stroke="#ff6b6b" stroke-width="2"/></g><g transform="translate(36.7 58.6)"><path d="m.18901978 0c-.10439274 0-.18901978.07386803-.18901978.16420864v20.07158266c0 .09069.08491211.1642087.18901978.1642087h29.22196052c.1043926 0 .1890197-.073868.1890197-.1642087v-20.07158266c0-.09068992-.0849122-.16420864-.1890197-.16420864z" fill="#fff"/><g fill="#ff6b6b"><path d="m10.9852306 4.87437139 4.3734331 7.20399071c.0538165.0886476.1700516.1118049.2563236.0539334l3.7099444-2.48864235c.1736512-.11648588.4048938-.07584849.520853.09727281l6.74251 7.50437324c.1140079.1702081.0315767.3081892-.1697248.3081892h-23.71168625c-.20829882 0-.29880076-.1441152-.20043881-.3250221l8.10753936-12.34950067c.0975995-.17950473.2657512-.17836762.3712464-.00459424z"/><path d="m24.1733333 6.16744186c1.0898419 0 1.9733334-.84961774 1.9733334-1.89767442s-.8834915-1.89767442-1.9733334-1.89767442c-1.0898418 0-1.9733333.84961774-1.9733333 1.89767442s.8834915 1.89767442 1.9733333 1.89767442z"/></g></g><g transform="translate(80 19)"><path d="m0 0h37v27h-37z" fill="#fff" fill-rule="evenodd"/><path d="m-1-1h39v29h-39z" stroke="#ff6b6b" stroke-width="2"/></g><g transform="translate(83.7 22.6)"><path d="m.18901978 0c-.10439274 0-.18901978.07386803-.18901978.16420864v20.07158266c0 .09069.08491211.1642087.18901978.1642087h29.22196052c.1043926 0 .1890197-.073868.1890197-.1642087v-20.07158266c0-.09068992-.0849122-.16420864-.1890197-.16420864z" fill="#fff"/><g fill="#ff6b6b"><path d="m10.9852306 4.87437139 4.3734331 7.20399071c.0538165.0886476.1700516.1118049.2563236.0539334l3.7099444-2.48864235c.1736512-.11648588.4048938-.07584849.520853.09727281l6.74251 7.50437324c.1140079.1702081.0315767.3081892-.1697248.3081892h-23.71168625c-.20829882 0-.29880076-.1441152-.20043881-.3250221l8.10753936-12.34950067c.0975995-.17950473.2657512-.17836762.3712464-.00459424z"/><path d="m24.1733333 6.16744186c1.0898419 0 1.9733334-.84961774 1.9733334-1.89767442s-.8834915-1.89767442-1.9733334-1.89767442c-1.0898418 0-1.9733333.84961774-1.9733333 1.89767442s.8834915 1.89767442 1.9733333 1.89767442z"/></g></g><g transform="translate(80 55)"><path d="m0 0h37v27h-37z" fill="#fff" fill-rule="evenodd"/><path d="m-1-1h39v29h-39z" stroke="#ff6b6b" stroke-width="2"/></g><g transform="translate(83.7 58.6)"><path d="m.18901978 0c-.10439274 0-.18901978.07386803-.18901978.16420864v20.07158266c0 .09069.08491211.1642087.18901978.1642087h29.22196052c.1043926 0 .1890197-.073868.1890197-.1642087v-20.07158266c0-.09068992-.0849122-.16420864-.1890197-.16420864z" fill="#fff"/><g fill="#ff6b6b"><path d="m10.9852306 4.87437139 4.3734331 7.20399071c.0538165.0886476.1700516.1118049.2563236.0539334l3.7099444-2.48864235c.1736512-.11648588.4048938-.07584849.520853.09727281l6.74251 7.50437324c.1140079.1702081.0315767.3081892-.1697248.3081892h-23.71168625c-.20829882 0-.29880076-.1441152-.20043881-.3250221l8.10753936-12.34950067c.0975995-.17950473.2657512-.17836762.3712464-.00459424z"/><path d="m24.1733333 6.16744186c1.0898419 0 1.9733334-.84961774 1.9733334-1.89767442s-.8834915-1.89767442-1.9733334-1.89767442c-1.0898418 0-1.9733333.84961774-1.9733333 1.89767442s.8834915 1.89767442 1.9733333 1.89767442z"/></g></g></g></svg>

<?xml version="1.0" encoding="UTF-8"?>
<svg width="150px" height="100px" viewBox="0 0 150 100" version="1.1" xmlns="http://www.w3.org/2000/svg" xmlns:xlink="http://www.w3.org/1999/xlink">
    <!-- Generator: Sketch 47.1 (45422) - http://www.bohemiancoding.com/sketch -->
    <title>thumbnail_gallery</title>
    <desc>Created with Sketch.</desc>
    <defs>
        <rect id="path-1" x="0" y="0" width="37" height="27"></rect>
        <rect id="path-2" x="0" y="0" width="37" height="27"></rect>
        <rect id="path-3" x="0" y="0" width="37" height="27"></rect>
        <rect id="path-4" x="0" y="0" width="37" height="27"></rect>
    </defs>
    <g id="Page-1" stroke="none" stroke-width="1" fill="none" fill-rule="evenodd">
        <g id="thumbnail_gallery">
            <g id="Group-2" transform="translate(33.000000, 19.000000)">
                <g id="Rectangle-4">
                    <use fill="#FFFFFF" fill-rule="evenodd" xlink:href="#path-1"></use>
                    <rect stroke="#FF6B6B" stroke-width="2" x="-1" y="-1" width="39" height="29"></rect>
                </g>
                <g id="Group" transform="translate(3.700000, 3.600000)">
                    <path d="M0.189019776,0 C0.0846270361,0 0,0.0738680302 0,0.16420864 L0,20.2357913 C0,20.3264813 0.084912109,20.4 0.189019776,20.4 L29.4109803,20.4 C29.5153729,20.4 29.6,20.326132 29.6,20.2357913 L29.6,0.16420864 C29.6,0.0735187185 29.5150878,0 29.4109803,0 L0.189019776,0 Z" id="path-1-path" fill="#FFFFFF"></path>
                    <path d="M10.9852306,4.87437139 L15.3586637,12.0783621 C15.4124802,12.1670097 15.5287153,12.190167 15.6149873,12.1322955 L19.3249317,9.64365315 C19.4985829,9.52716727 19.7298255,9.56780466 19.8457847,9.74092596 L26.5882947,17.2452992 C26.7023026,17.4155073 26.6198714,17.5534884 26.4185699,17.5534884 L2.70688365,17.5534884 C2.49858483,17.5534884 2.40808289,17.4093732 2.50644484,17.2284663 L10.6139842,4.87896563 C10.7115837,4.6994609 10.8797354,4.70059801 10.9852306,4.87437139 Z" id="path-1-path" fill="#FF6B6B"></path>
                    <path d="M24.1733333,6.16744186 C25.2631752,6.16744186 26.1466667,5.31782412 26.1466667,4.26976744 C26.1466667,3.22171076 25.2631752,2.37209302 24.1733333,2.37209302 C23.0834915,2.37209302 22.2,3.22171076 22.2,4.26976744 C22.2,5.31782412 23.0834915,6.16744186 24.1733333,6.16744186 Z" id="path-1-path" fill="#FF6B6B"></path>
                </g>
            </g>
            <g id="Group-2" transform="translate(33.000000, 55.000000)">
                <g id="Rectangle-4">
                    <use fill="#FFFFFF" fill-rule="evenodd" xlink:href="#path-2"></use>
                    <rect stroke="#FF6B6B" stroke-width="2" x="-1" y="-1" width="39" height="29"></rect>
                </g>
                <g id="Group" transform="translate(3.700000, 3.600000)">
                    <path d="M0.189019776,0 C0.0846270361,0 0,0.0738680302 0,0.16420864 L0,20.2357913 C0,20.3264813 0.084912109,20.4 0.189019776,20.4 L29.4109803,20.4 C29.5153729,20.4 29.6,20.326132 29.6,20.2357913 L29.6,0.16420864 C29.6,0.0735187185 29.5150878,0 29.4109803,0 L0.189019776,0 Z" id="path-1-path" fill="#FFFFFF"></path>
                    <path d="M10.9852306,4.87437139 L15.3586637,12.0783621 C15.4124802,12.1670097 15.5287153,12.190167 15.6149873,12.1322955 L19.3249317,9.64365315 C19.4985829,9.52716727 19.7298255,9.56780466 19.8457847,9.74092596 L26.5882947,17.2452992 C26.7023026,17.4155073 26.6198714,17.5534884 26.4185699,17.5534884 L2.70688365,17.5534884 C2.49858483,17.5534884 2.40808289,17.4093732 2.50644484,17.2284663 L10.6139842,4.87896563 C10.7115837,4.6994609 10.8797354,4.70059801 10.9852306,4.87437139 Z" id="path-1-path" fill="#FF6B6B"></path>
                    <path d="M24.1733333,6.16744186 C25.2631752,6.16744186 26.1466667,5.31782412 26.1466667,4.26976744 C26.1466667,3.22171076 25.2631752,2.37209302 24.1733333,2.37209302 C23.0834915,2.37209302 22.2,3.22171076 22.2,4.26976744 C22.2,5.31782412 23.0834915,6.16744186 24.1733333,6.16744186 Z" id="path-1-path" fill="#FF6B6B"></path>
                </g>
            </g>
            <g id="Group-2" transform="translate(80.000000, 19.000000)">
                <g id="Rectangle-4">
                    <use fill="#FFFFFF" fill-rule="evenodd" xlink:href="#path-3"></use>
                    <rect stroke="#FF6B6B" stroke-width="2" x="-1" y="-1" width="39" height="29"></rect>
                </g>
                <g id="Group" transform="translate(3.700000, 3.600000)">
                    <path d="M0.189019776,0 C0.0846270361,0 0,0.0738680302 0,0.16420864 L0,20.2357913 C0,20.3264813 0.084912109,20.4 0.189019776,20.4 L29.4109803,20.4 C29.5153729,20.4 29.6,20.326132 29.6,20.2357913 L29.6,0.16420864 C29.6,0.0735187185 29.5150878,0 29.4109803,0 L0.189019776,0 Z" id="path-1-path" fill="#FFFFFF"></path>
                    <path d="M10.9852306,4.87437139 L15.3586637,12.0783621 C15.4124802,12.1670097 15.5287153,12.190167 15.6149873,12.1322955 L19.3249317,9.64365315 C19.4985829,9.52716727 19.7298255,9.56780466 19.8457847,9.74092596 L26.5882947,17.2452992 C26.7023026,17.4155073 26.6198714,17.5534884 26.4185699,17.5534884 L2.70688365,17.5534884 C2.49858483,17.5534884 2.40808289,17.4093732 2.50644484,17.2284663 L10.6139842,4.87896563 C10.7115837,4.6994609 10.8797354,4.70059801 10.9852306,4.87437139 Z" id="path-1-path" fill="#FF6B6B"></path>
                    <path d="M24.1733333,6.16744186 C25.2631752,6.16744186 26.1466667,5.31782412 26.1466667,4.26976744 C26.1466667,3.22171076 25.2631752,2.37209302 24.1733333,2.37209302 C23.0834915,2.37209302 22.2,3.22171076 22.2,4.26976744 C22.2,5.31782412 23.0834915,6.16744186 24.1733333,6.16744186 Z" id="path-1-path" fill="#FF6B6B"></path>
                </g>
            </g>
            <g id="Group-2" transform="translate(80.000000, 55.000000)">
                <g id="Rectangle-4">
                    <use fill="#FFFFFF" fill-rule="evenodd" xlink:href="#path-4"></use>
                    <rect stroke="#FF6B6B" stroke-width="2" x="-1" y="-1" width="39" height="29"></rect>
                </g>
                <g id="Group" transform="translate(3.700000, 3.600000)">
                    <path d="M0.189019776,0 C0.0846270361,0 0,0.0738680302 0,0.16420864 L0,20.2357913 C0,20.3264813 0.084912109,20.4 0.189019776,20.4 L29.4109803,20.4 C29.5153729,20.4 29.6,20.326132 29.6,20.2357913 L29.6,0.16420864 C29.6,0.0735187185 29.5150878,0 29.4109803,0 L0.189019776,0 Z" id="path-1-path" fill="#FFFFFF"></path>
                    <path d="M10.9852306,4.87437139 L15.3586637,12.0783621 C15.4124802,12.1670097 15.5287153,12.190167 15.6149873,12.1322955 L19.3249317,9.64365315 C19.4985829,9.52716727 19.7298255,9.56780466 19.8457847,9.74092596 L26.5882947,17.2452992 C26.7023026,17.4155073 26.6198714,17.5534884 26.4185699,17.5534884 L2.70688365,17.5534884 C2.49858483,17.5534884 2.40808289,17.4093732 2.50644484,17.2284663 L10.6139842,4.87896563 C10.7115837,4.6994609 10.8797354,4.70059801 10.9852306,4.87437139 Z" id="path-1-path" fill="#FF6B6B"></path>
                    <path d="M24.1733333,6.16744186 C25.2631752,6.16744186 26.1466667,5.31782412 26.1466667,4.26976744 C26.1466667,3.22171076 25.2631752,2.37209302 24.1733333,2.37209302 C23.0834915,2.37209302 22.2,3.22171076 22.2,4.26976744 C22.2,5.31782412 23.0834915,6.16744186 24.1733333,6.16744186 Z" id="path-1-path" fill="#FF6B6B"></path>
                </g>
            </g>
        </g>
    </g>
</svg>
